X:1
T:Title
%%score { ( 1 3 ) | ( 2 4 ) }
L:1/8
Q:1/4=100
M:6/8
K:C
V:1 treble nm="Grand Piano"
V:3 treble 
V:2 bass 
V:4 bass 
V:1
 E2 _E =E2 _E | E3 [DF]3 | [EG]2 [_E^F] [=EG]2 [_EF] | z3 .A3 | [Ec]2 [EB] [EB]2 [EA] | %5
w: Samuel~D.~Smith * * *|||||
 [Fc]2 [FB] [FB]2 [FA] | c2 B B2 A | [FA]2 [EG] [EG]2 [DF] | E2 _E =E2 _E | E3 [G,DF]3 | %10
w: |||||
 [G,EG]2 [A,_E^F] [G,=EG]2 [A,_EF] | .[G,EG]3 [CFA]3 | [GB]2 [G_B] [G=B]2 [Gc] | %13
w: |||
 [Gd]2 [G^c] [Gd]2 [Ge] | [Gd]2 [EGc] [DGB]2 [C^FA] | G6 | [Ec]3 [EB]3 | [EA]3 [EG]3 | %18
w: |||||
 [CE][DF][EG] [EA]2 [CE] | [EG]2 [_E^F] [D=F]3 | [Fd]3 [E^c]2 [Fd] | [Ge]2 [Fd] [FB]2 [FA] | %22
w: ||||
 GAB A2 G | [Ge]6 | [Ec]3 [EB]3 | [EA]3 [EG]3 | [CE][DF][EG] [FA]2 [EG] | [CE]2 [EG] [Ec]3 | %28
w: ||||||
 ABc A3 | ABc A3 | GAB e2 [Fd] | [Ec]6 |] %32
w: ||||
V:2
 [C,G,C]2 [C,^F,C] [C,G,C]2 [C,F,C] | [C,G,C]3 [C,G,]3 | [C,G,]2 [C,A,] [C,G,]2 [C,A,] | %3
 [C,G,]3 [C,G,]3 | [C,G,]2 [C,G,] [C,G,]2 [C,G,] | [D,G,]2 [D,G,] [D,G,]2 [D,G,] | %6
 [G,F]2 [G,DF] [G,DF]2 [G,DF] | [C,C]2 [C,C] [C,C]2 [C,C] | [C,G,C]2 [C,^F,C] [C,G,C]2 [C,F,C] | %9
 [C,G,C]3 C,3 | C,2 C, C,2 C, | z2 C C,3 | [D,G,]2 [D,G,] [D,G,]2 [D,A,] | %13
 [D,B,]2 [D,_B,] [D,=B,]2 [D,B,] | [D,B,]2 D, D,2 D, | z2 A, G,3 | [C,G,]3 [G,,G,]3 | %17
 [C,G,]3 [G,,G,]3 | [C,G,][C,G,][C,G,] [C,G,]2 [C,G,] | [G,,G,]2 [G,,G,] [G,,G,]3 | %20
 [B,,G,]3 [G,,G,]2 [G,,G,] | [B,,G,]2 [B,,G,] [D,G,]2 [D,G,] | [G,B,F][G,CF][G,DF] [G,DF]2 [G,B,] | %23
 [C,C]6 | [C,G,]3 [G,,G,]3 | [C,G,]3 [G,,G,]3 | [C,G,][C,G,][C,G,] [C,C]2 [C,C] | %27
 [C,G,]2 [C,G,] [C,G,]3 | [A,CE][A,CE][A,CE] [A,CE]3 | [^F,C_E][F,CE][F,CE] [F,CE]3 | %30
 [G,CE][G,CE][G,DF] [G,B,G]2[K:bass] [G,,G,] | [C,G,]6 |] %32
V:3
 x6 | x6 | x6 | [EG]3 E2- [EB] | x6 | x6 | x6 | x6 | x6 | x6 | x6 | x6 | x6 | x6 | x6 | .B,3 F3 | %16
 x6 | x6 | x6 | x6 | x6 | x6 | x6 | x6 | x6 | x6 | x6 | x6 | x6 | x6 | x6 | x6 |] %32
V:4
 x6 | x6 | x6 | x6 | x6 | x6 | x6 | x6 | x6 | x6 | x6 | C,3 z3 | x6 | x6 | x6 | G,3 z3 | x6 | x6 | %18
 x6 | x6 | x6 | x6 | x6 | x6 | x6 | x6 | x6 | x6 | x6 | x6 | x5[K:bass] x | x6 |] %32

